img/svg-icons/mobile.svg

<svg xmlns="http://www.w3.org/2000/svg" id="mobile" viewBox="0 0 29.9 56.8"><ellipse cx="14.9" cy="52.3" rx="1.2" ry="1.3"/><path d="M26.5 0H3.4A3.7 3.7 0 0 0 0 3.9v49a3.63 3.63 0 0 0 3.4 3.9h23.1a3.7 3.7 0 0 0 3.4-3.9v-49A3.7 3.7 0 0 0 26.5 0zm1.7 52.9a2 2 0 0 1-1.7 2.2H3.4a2 2 0 0 1-1.7-2.2v-3.5h26.5v3.5zm0-5.2H1.7V6.6h26.5v41.1zm0-42.8H1.7v-1a2 2 0 0 1 1.7-2.2h23.1a2 2 0 0 1 1.7 2.2v1z"/></svg>

<svg id="mobile" xmlns="http://www.w3.org/2000/svg" width="29.9" height="56.8" viewBox="0 0 29.9 56.8"><title>mobile</title><ellipse cx="14.9" cy="52.3" rx="1.2" ry="1.3"  /><path d="M26.5,0H3.4A3.7,3.7,0,0,0,0,3.9v49a3.63,3.63,0,0,0,3.4,3.9H26.5a3.7,3.7,0,0,0,3.4-3.9V3.9A3.7,3.7,0,0,0,26.5,0Zm1.7,52.9a2,2,0,0,1-1.7,2.2H3.4a2,2,0,0,1-1.7-2.2V49.4H28.2v3.5h0Zm0-5.2H1.7V6.6H28.2V47.7Zm0-42.8H1.7v-1A2,2,0,0,1,3.4,1.7H26.5a2,2,0,0,1,1.7,2.2v1h0Z" transform="translate(0 0)"  /></svg>
